X:1
T:She Is More To Be Pitied Than Censured
M:3/4
L:1/4
K:C
 G/2G/2| e e e| f g f| e c2-| c z c/2c/2| f f f| f c d| e3-| e zG/2-G/2|\
 e e e| f g f| e c2-| c ze/2-e/2| e d c| A B c| d3-| d z G/2G/2| e e e|\
 f g f| e c2-| c zc/2-c/2| f f f| f c d| e3-| e z c/2B/2| A ^G A| d c A|\
 G e2-| e z e/2e/2| e d A| B c d| c3-| c z||
